!!!!SEGMENT: pl-kk--kk-i-3--005-007_anonim--officium-de-assumptione-de-bmv-agnus-dei.krn
!!!cenid: 15xx:576
!!!COM: Anonim
!!!COM-rismid: pe30004985
!!!CDT:
!!!CNT:
!!!OPR: Officium de Assumptione de BMV
!!!OTL: Agnus Dei
!!!OMV: 007
!!!PDT:
!!!AGN:
!!!SMS-siglum: PL-Kk
!!!SMS-shelfmark: Kk.I.3
!!!SMS-shelfwork: 005-007 M
!!!SMS-variant:
!!!SMS-altvar:
!!!NIFC-rismid: 1001145497
!!!URL-scan: http://repozytorium.nifc.pl/skany/pl-kk-nut--i-3
!!!ONB-nifc: UWAGA: Discantus (brak), Tenor (s. 13v-14r, skan 0186), Bassus (brak). Następna część: Dilexisti iustitiam
!!!key: C
**kern	**kern	**text	**text	**kern
*part3	*part2	*part2	*part2	*part1
*staff3	*staff2	*staff2	*staff2	*staff1
*I"[Bassus]	*I"[Tenor]	*	*	*I"[Discantus]
*I'[B]	*I'[T]	*	*	*I'[S]
*Ibass	*Itenor	*	*	*Isoprn
*ICvox	*ICvox	*	*	*ICvox
*clefF4	*clefC4	*	*	*clefC1
*k[]	*k[]	*	*	*k[]
*C:	*C:	*	*	*C:
*M4/4	*M4/4	*	*	*M4/4
*met(c)	*met(c)	*	*	*met(c)
=1-	=1-	=1-	=1-	=1-
!LO:TX:a:t=P:problem=brak partii w źródle	!LO:TX:t=P:problem=brak metrum	!	!	!LO:TX:a:t=P:problem=brak partii w źródle
1ryy	1D	A-	.	1ryy
=2-	=2-	=2-	=2-	=2-
1ryy	1F	.	.	1ryy
=3-	=3-	=3-	=3-	=3-
1ryy	1C	-gnus	.	1ryy
=4-	=4-	=4-	=4-	=4-
1ryy	1D	.	.	1ryy
=5-	=5-	=5-	=5-	=5-
1ryy	1E	.	.	1ryy
=6-	=6-	=6-	=6-	=6-
*	*lig	*	*	*
1ryy	1F	de-	.	1ryy
=7-	=7-	=7-	=7-	=7-
1ryy	1D	.	.	1ryy
*	*Xlig	*	*	*
=8-	=8-	=8-	=8-	=8-
1ryy	1C	.	.	1ryy
=9-	=9-	=9-	=9-	=9-
1ryy	1D	.	.	1ryy
=10-	=10-	=10-	=10-	=10-
1ryy	1D	-i	.	1ryy
=11-	=11-	=11-	=11-	=11-
1ryy	1E	qui	.	1ryy
=12-	=12-	=12-	=12-	=12-
1ryy	1F	.	.	1ryy
=13-	=13-	=13-	=13-	=13-
1ryy	1G	.	.	1ryy
=14-	=14-	=14-	=14-	=14-
*	*lig	*	*	*
1ryy	1G	tol-	.	1ryy
=15-	=15-	=15-	=15-	=15-
1ryy	1F	.	.	1ryy
=16-	=16-	=16-	=16-	=16-
1ryy	1E	.	.	1ryy
=17-	=17-	=17-	=17-	=17-
1ryy	1D	.	.	1ryy
*	*Xlig	*	*	*
=18-	=18-	=18-	=18-	=18-
1ryy	1E	.	.	1ryy
=19-	=19-	=19-	=19-	=19-
*	*lig	*	*	*
1ryy	1F	.	.	1ryy
=20-	=20-	=20-	=20-	=20-
1ryy	1E	.	.	1ryy
*	*Xlig	*	*	*
=21-	=21-	=21-	=21-	=21-
1ryy	1D	.	.	1ryy
=22-	=22-	=22-	=22-	=22-
1ryy	1D	-lis	.	1ryy
=23-	=23-	=23-	=23-	=23-
!	!	!	!	!
1ryy	1C	.	.	1ryy
*	*custos:E	*	*	*
=24-	=24-	=24-	=24-	=24-
!	!LO:PB:g=original	!	!	!
1ryy	1E	Pec-	.	1ryy
=25-	=25-	=25-	=25-	=25-
1ryy	1F	.	.	1ryy
=26-	=26-	=26-	=26-	=26-
1ryy	1G	.	.	1ryy
=27-	=27-	=27-	=27-	=27-
1ryy	1G	-ca-	.	1ryy
=28-	=28-	=28-	=28-	=28-
1ryy	1A	.	.	1ryy
=29-	=29-	=29-	=29-	=29-
1ryy	1D	-ta	.	1ryy
=30-	=30-	=30-	=30-	=30-
1ryy	1E	.	.	1ryy
=31-	=31-	=31-	=31-	=31-
*	*lig	*	*	*
1ryy	1F	.	.	1ryy
=32-	=32-	=32-	=32-	=32-
1ryy	1E	.	.	1ryy
*	*Xlig	*	*	*
=33-	=33-	=33-	=33-	=33-
1ryy	1D	.	.	1ryy
=34-	=34-	=34-	=34-	=34-
1ryy	1C	.	.	1ryy
=35-	=35-	=35-	=35-	=35-
1ryy	1D	mun-	.	1ryy
=36-	=36-	=36-	=36-	=36-
1ryy	1E	.	.	1ryy
=37-	=37-	=37-	=37-	=37-
1ryy	1F	.	.	1ryy
=38-	=38-	=38-	=38-	=38-
*	*lig	*	*	*
1ryy	1E	-di	.	1ryy
=39-	=39-	=39-	=39-	=39-
1ryy	1D	.	.	1ryy
*	*Xlig	*	*	*
=40-	=40-	=40-	=40-	=40-
1ryy	1D	mi-	Do-	1ryy
=41-	=41-	=41-	=41-	=41-
1ryy	1E	-se-	-na	1ryy
=42-	=42-	=42-	=42-	=42-
1ryy	1F	.	.	1ryy
=43-	=43-	=43-	=43-	=43-
1ryy	1G	.	.	1ryy
=44-	=44-	=44-	=44-	=44-
1ryy	1A	.	.	1ryy
=45-	=45-	=45-	=45-	=45-
1ryy	1G	re-	.	1ryy
=46-	=46-	=46-	=46-	=46-
*	*lig	*	*	*
1ryy	1F	-re	.	1ryy
=47-	=47-	=47-	=47-	=47-
1ryy	1E	.	.	1ryy
*	*Xlig	*	*	*
*	*custos:F	*	*	*
=48-	=48-	=48-	=48-	=48-
!	!LO:LB:g=original	!	!	!
1ryy	1F	no-	.	1ryy
=49-	=49-	=49-	=49-	=49-
*	*lig	*	*	*
1ryy	1G	.	.	1ryy
=50-	=50-	=50-	=50-	=50-
1ryy	1F	.	.	1ryy
*	*Xlig	*	*	*
=51-	=51-	=51-	=51-	=51-
1ryy	1E	.	.	1ryy
=52-	=52-	=52-	=52-	=52-
1ryy	1C	.	.	1ryy
=53-	=53-	=53-	=53-	=53-
1ryy	1D	.	.	1ryy
=54-	=54-	=54-	=54-	=54-
1ryy	1E	.	.	1ryy
=55-	=55-	=55-	=55-	=55-
*	*lig	*	*	*
1ryy	1F	.	.	1ryy
=56-	=56-	=56-	=56-	=56-
1ryy	1D	.	.	1ryy
*	*Xlig	*	*	*
=57-	=57-	=57-	=57-	=57-
1ryy	1C	.	.	1ryy
=58-	=58-	=58-	=58-	=58-
1ryy	[1D	-bis	.	1ryy
=59-	=59-	=59-	=59-	=59-
1ryy	1D_	.	.	1ryy
=60-	=60-	=60-	=60-	=60-
1ryy	1D]	.	.	1ryy
=61-	=61-	=61-	=61-	=61-
1ryy	1D	A-	.	1ryy
=62-	=62-	=62-	=62-	=62-
1ryy	1A	.	.	1ryy
=63-	=63-	=63-	=63-	=63-
1ryy	1B	.	.	1ryy
=64-	=64-	=64-	=64-	=64-
*	*lig	*	*	*
1ryy	1A	-gn(us)	.	1ryy
=65-	=65-	=65-	=65-	=65-
1ryy	1G	.	.	1ryy
*	*Xlig	*	*	*
=66-	=66-	=66-	=66-	=66-
1ryy	1A	de-	.	1ryy
=67-	=67-	=67-	=67-	=67-
1ryy	1D	-i	.	1ryy
=68-	=68-	=68-	=68-	=68-
1ryy	1E	qui	.	1ryy
=69-	=69-	=69-	=69-	=69-
1ryy	1F	.	.	1ryy
=70-	=70-	=70-	=70-	=70-
1ryy	1G	.	.	1ryy
*	*custos:G	*	*	*
!	!LO:LB:g=original	!	!	!
=71-	=71-	=71-	=71-	=71-
*	*lig	*	*	*
1ryy	1G	tol-	.	1ryy
=72-	=72-	=72-	=72-	=72-
1ryy	1F	.	.	1ryy
=73-	=73-	=73-	=73-	=73-
1ryy	1E	.	.	1ryy
=74-	=74-	=74-	=74-	=74-
1ryy	1D	.	.	1ryy
*	*Xlig	*	*	*
=75-	=75-	=75-	=75-	=75-
1ryy	1E	.	.	1ryy
=76-	=76-	=76-	=76-	=76-
*	*lig	*	*	*
1ryy	1F	.	.	1ryy
=77-	=77-	=77-	=77-	=77-
1ryy	1E	.	.	1ryy
*	*Xlig	*	*	*
=78-	=78-	=78-	=78-	=78-
1ryy	1D	.	.	1ryy
=79-	=79-	=79-	=79-	=79-
*	*lig	*	*	*
1ryy	1D	-lis	.	1ryy
=80-	=80-	=80-	=80-	=80-
1ryy	1C	.	.	1ryy
*	*Xlig	*	*	*
=81-	=81-	=81-	=81-	=81-
1ryy	1E	pec-	.	1ryy
=82-	=82-	=82-	=82-	=82-
1ryy	1F	.	.	1ryy
=83-	=83-	=83-	=83-	=83-
1ryy	1G	.	.	1ryy
=84-	=84-	=84-	=84-	=84-
1ryy	1G	-ca-	.	1ryy
=85-	=85-	=85-	=85-	=85-
1ryy	1A	.	.	1ryy
=86-	=86-	=86-	=86-	=86-
1ryy	1D	-ta	.	1ryy
=87-	=87-	=87-	=87-	=87-
1ryy	1E	.	.	1ryy
=88-	=88-	=88-	=88-	=88-
1ryy	1F	.	.	1ryy
=89-	=89-	=89-	=89-	=89-
1ryy	1E	.	.	1ryy
=90-	=90-	=90-	=90-	=90-
1ryy	1D	.	.	1ryy
=91-	=91-	=91-	=91-	=91-
1ryy	1C	.	.	1ryy
=92-	=92-	=92-	=92-	=92-
1ryy	1D	mun-	.	1ryy
=93-	=93-	=93-	=93-	=93-
1ryy	1E	.	.	1ryy
=94-	=94-	=94-	=94-	=94-
1ryy	1F	.	.	1ryy
=95-	=95-	=95-	=95-	=95-
*	*lig	*	*	*
1ryy	1E	-di	.	1ryy
=96-	=96-	=96-	=96-	=96-
!	!LO:SIC:v:t=custos D	!	!	!
1ryy	1D	.	.	1ryy
*	*Xlig	*	*	*
*	*custos:D	*	*	*
=97-	=97-	=97-	=97-	=97-
!	!LO:LB:g=original	!	!	!
1ryy	1D	Mi-	.	1ryy
=98-	=98-	=98-	=98-	=98-
1ryy	1E	-ſe-	.	1ryy
=99-	=99-	=99-	=99-	=99-
1ryy	1F	.	.	1ryy
=100-	=100-	=100-	=100-	=100-
1ryy	1G	.	.	1ryy
=101-	=101-	=101-	=101-	=101-
1ryy	1A	.	.	1ryy
=102-	=102-	=102-	=102-	=102-
1ryy	1G	-re-	.	1ryy
=103-	=103-	=103-	=103-	=103-
*	*lig	*	*	*
1ryy	1F	-re	.	1ryy
=104-	=104-	=104-	=104-	=104-
1ryy	1E	.	.	1ryy
*	*Xlig	*	*	*
=105-	=105-	=105-	=105-	=105-
1ryy	1F	no-	.	1ryy
=106-	=106-	=106-	=106-	=106-
*	*lig	*	*	*
1ryy	1G	.	.	1ryy
=107-	=107-	=107-	=107-	=107-
1ryy	1F	.	.	1ryy
*	*Xlig	*	*	*
=108-	=108-	=108-	=108-	=108-
1ryy	1E	.	.	1ryy
=109-	=109-	=109-	=109-	=109-
1ryy	1C	.	.	1ryy
=110-	=110-	=110-	=110-	=110-
1ryy	1D	.	.	1ryy
=111-	=111-	=111-	=111-	=111-
1ryy	1E	.	.	1ryy
=112-	=112-	=112-	=112-	=112-
*	*lig	*	*	*
1ryy	1F	.	.	1ryy
=113-	=113-	=113-	=113-	=113-
1ryy	1D	.	.	1ryy
=114-	=114-	=114-	=114-	=114-
1ryy	1C	.	.	1ryy
*	*Xlig	*	*	*
=115-	=115-	=115-	=115-	=115-
1ryy	[1D	-bis	.	1ryy
=116-	=116-	=116-	=116-	=116-
1ryy	1D_	.	.	1ryy
=117-	=117-	=117-	=117-	=117-
1ryy	1D_	.	.	1ryy
=118-	=118-	=118-	=118-	=118-
1ryy	1D]	.	.	1ryy
==	==	==	==	==
*-	*-	*-	*-	*-
!!!system-decoration: [(s1,s2,s3)]
!!!RDF**kern: l = terminal long
!!!RDF**kern: > = above
!!!RDF**kern: < = below
!!!AIN: 1 bass 1 soprn 1 tenor
!!!ENC: Katarzyna Serwa
!!!END: 2021-12-29
!!!ENC: Filip Voros
!!!END: 2021-12-25
